X: 3
T: The Monaghan
R: jig
M: 6/8
L: 1/8
K: Emin
EGB eBG|BGE FAF|EGB eBG|F3 AFD| EGB GBe|Beg efg|d3 A2G|FDF AGF|


Tune 67	Setting 23930

